X: 01064
T: The KOO KOO BIRD
C: Bob McQuillen '75
B: Bob's Note Book 1 #64
%R: march
Z: 2019 John Chambers <jc:trillian.mit.edu>
M: C
L: 1/8
K: A
AB \
| c2A2 E2A2 | c2A2 E2A2 | c2A2 ecAd | c2B2 B2AB |\
| c2A2 E2A2 | c2A2 E2A2 | d2f2 efed | c2A2 A2  :|
|: Bc \
| d2f2 B3d  | c2e2 A3c  | B2c2 d2e2 | f2e^d e4  |\
| d2f2 B3d  | c2e2 A3E  | G2A2 B2G2 | A2c2  A2 :|
%%begintext align
%% For Paul Krulis,
%% Summer Street's
%% Greatest Cook!!
%%endtext

%%sep 1 1 500

%%sep 1 1 500

